!!!OTL: Canon / zu 3 Stimmen.
!!!OTL-incipit:DER SOMMER KEHRET WIEDER
!!!COM: J. G. Ferrari
!!!ARE: Europa, Mitteleuropa, Deutschland
!!!SCT: F0345
!!!TXL: @@DE
!!!YEM: Copyright 1995, estate of Helmut Schaffrath.
**kern	**text
*ICvox	*
*M2/4	*
*k[b-e-]	*
*B-:	*
{8f	Der
=1	=1
8b-	Sommer
8dd	.
8b-	keh-
8dd	-ret
=2	=2
4b-	wie-
8b-}	-der,
{8b-	der
=3	=3
8cc	Kuckuck
8f	.
8f	hat
8f	ge-
=4	=4
4b-	-ſchrie'n;
8r}	.
!LO:TX:a:t=ֲ§	!
{8f	hört
=5	=5
8d	wie
8B-	dort
8d	ſei-
8f	-ne
=6	=6
4d	Lie-
8d}	-der
{8d	hin-
=7	=7
8e-	-aus
8e-	ʒum
8e-	Walde
8e-	.
=8	=8
4d	ʒiehn!
8r	.
!LO:TX:a:t=ֲ§	!
8r	.
=9	=9
8r}	.
{8ff	Kuckuck!
8dd	.
8r	.
=10	=10
8r	.
8ff	Kuckuck!
8dd	.
8r	.
=11	=11
2r	.
=12	=12
8r	.
8ff	Kuckuck!
8dd}	.
==	==
!!!AGN: Jugend - Lied, Geselligkeit, Scherz, Kanon
!!!ONB: ESAC (Essen Associative Code) Database: FINK
!!!AMT: simple duple
!!!AIN: vox
!!!EED: Helmut Schaffrath
!!!EEV: 1.0
!!!GTL: Jugendlieder
!!!source: Musikalischer Hausschatz der Deutschen. Eine Sammlung von über 1000 Liedern und Gesängen mit Singstimmen und Klavierbegleitung. Leipzig, Litterarisches Verlags-Haus.
!!!page: 202
!!!URL-scan: https://www.digitale-sammlungen.de/en/view/bsb11144622?page=200,201
!!!ENC: Anna Maria Matuszewska
!!!EEV: 2024/07/30
*-	*-
